packages/gestalt-icons-android/vr-theme/ic_vr_text-all-caps_gestalt.svg

<svg width="24" height="24" viewBox="0 0 24 24" fill="none" xmlns="http://www.w3.org/2000/svg">
<path d="M3.70923 14.4237L2.79723 16.9997H0.365234L4.73323 5.71973H7.30923L11.6772 16.9997H9.24524L8.33323 14.4237H3.70923ZM6.01324 7.97573L4.42923 12.4237H7.61323L6.01324 7.97573Z" fill="black"/>
<path d="M15.6624 14.4237L14.7504 16.9997H12.3184L16.6864 5.71973H19.2624L23.6304 16.9997H21.1984L20.2864 14.4237H15.6624ZM17.9664 7.97573L16.3824 12.4237H19.5664L17.9664 7.97573Z" fill="black"/>
</svg>

<svg xmlns="http://www.w3.org/2000/svg" width="24" height="24"><path d="M3.7 14.42 2.8 17H.37L4.73 5.72h2.58L11.68 17H9.25l-.92-2.58zm2.31-6.44-1.58 4.44H7.6zm9.65 6.44L14.75 17h-2.43l4.37-11.28h2.57L23.63 17H21.2l-.91-2.58zm2.3-6.44-1.58 4.44h3.19z"/></svg>
